X:11131
T:Montagnards Laurentiens 1
M:4/4
K:D
f2AA Acde|d2c2c3g|g2AA Acef|e2d2d3f|f2a2a3f|g2b2b4|a2c'b agfe|dd'afd4:|e2B2e3B|efedc2A2|BABcd2B2|A2AB cBA2|e2B2e3B|efedc2A2|BABcd2B2|1A2(3Acea4:||2A2(3Acea2||B2|d6B2|e3fe2B2|d3d dcde|d2b2a2g2|f6a2|e6d2|f8|f2f2e2B2|d6B2|e3fe2B2|d3d dcde|d2B2d2g2|e6g2|d6d2|c2d2e2f2|g6:||
